X:521
T:West Dakota Rose
C:Chris Henry https://www.youtube.com/watch?v=xdJqc02tFuA
N:TablEdited by Larry Tanner
L:1/8
Q:1/4=200
M:4/4
K:C
z4 ^G,4 | B,4 C4 | "C#m"{C}^CC CC CC CC | ^CC CC CD E^F | ^G2 B2 [BG][BG] [BG][BG] | 
[B^G][BG] [BG]^F EF GB | "E"^ce e^f ^g2 [ge][ge] | [^ge][ge] [ge]^f ee f2 | ^g2 b2 gg gg | 
^gg gg g2 b2 | "F#m"e^f f^g f2 ff | ^f2 ef ^ge f^c | "A"eA ^dA ^c2 cc | ^c2 {d}eB A^d Ad | 
"C#m"A^d A^G E^F G^c | [e2^c2] [ec][ec] [ec][ec] [e2c2] | ^GG G2 ^FF F2 | EE E2 ^DD D2 | 
B,^C CC CC CC | ^CC CC CD E^F | ^G2 B2 [BG][BG] [BG][BG] | [B^G][BG] [BG]^F EF GB | 
"E"^ce e^f ^g2 [ge][ge] | [^ge][ge] [ge]^f ee f2 | ^g2 b2 gg [gB][gB] | [^gB][gB] [gB][gB] g2 b2 | 
"F#m"e^f f^g f2 ff | ^f2 ef ^ge f^c | "A"eA ^dA ^c2 cc | ^c2 {d}eB A^d Ad | "C#m"A^d A^G E^F G^c | 
[e2^c2] [ec][ec] [ec][ec] [ec][ec] | [e^c][ec] [ec][ec] [ec][ec] ^G^F | E^F ^GB ^c^d e^f | 
"E"^gg "Chorus"gb g2 [gB][gB] | [^g2B2] g^f ef ef | ^g2 b2 [g2B2] [gB][gB] | [^gB][gB] [gB]g ^fg b=f | 
"F#m"^ff f^g f2 ff | ^ff ff ^ge fe | "C#m"eA ^dA ^c2 [cE][cE] | [^cE][cE] [cE][cE] c2 ^d2 | 
"A"[ae][ae] [ae][ae] [ae][ae] [ae][ae] | [ae][ae] [ae][ae] [ae]^f eA | "B"[a^d][ad] [ad][ad] [ad][ad] [ad][ad] | 
[a^d][ad] [ad]^c Ad Ad | "C#m"A^d A^G E^F G^c | [e^c^G][ecG] [ecG][ecG] [ecG][ecG] [ecG][ecG] | 
[e^c^G][ecG] [ecG][ecG] [ecG][ecG] [ecG]E | E^G GB ^ce e^f | "E"^gg gb g2 [ge][ge] | 
[^g3e3]g ^fe ef | ^g2 b2 [g2B2] [gB][gB] | [^gB][gB] [gB]g ^fg b=f | "F#m"^ff f^g f2 ff | 
^ff ff ^ge fe | "C#m"eA ^dA ^c2 [cE][cE] | [^cE][cE] [cE][cE] c2 ^d2 | "A"[ae][ae] [ae][ae] [ae][ae] [ae][ae] | 
[ae][ae] [ae][ae] [ae]^f eA | "B"[a^d][ad] [ad][ad] [ad][ad] [ad][ad] | [a^d][ad] [ad]^c Ad Ad | 
"C#m"A^d A^G E^F G^c | [^c^G][cG] [cG][cG] [cG][cG] [cG][cG] | ^GG G2 ^FF F2 | 
EE E2 ^DD D2 | B,^C CC CE CC | ^CE CC C4 | 


